X:1
T:Valet Will Ich Dir Geben, 76.76 D
T:Valet Will Ich Dir Geben, 76.76 D
T:Melchior Teschner, 1613
T:Public Domain Courtesy of the Cyber Hymnal™
C:Melchior Teschner, 1613
Z:Public Domain
Z:Courtesy of the Cyber Hymnal™
%%score 1 ( 2 3 )
L:1/8
Q:1/4=115
M:4/4
K:C
V:1 treble 
V:2 bass 
V:3 bass 
V:1
 [G,C]2 [G,G]2 [CG]2 [CA]2 | [FB]2 [Fc]4 [Ec]2 | [Ge]2 [Gd]2 [Ec]2 [Dc]2 | [DB]2 [Ec]6 | %4
 [G,C]2 [G,G]2 [CG]2 [CA]2 | [FB]2 [Fc]4 [Ec]2 | [Ge]2 [Gd]2 [Ec]2 [Dc]2 | [DB]2 [Ec]6 | %8
 [Gc]2 [Ge]2 [Ae]2 [Ad]2 | [Fd]2 [Ec]4 [EB]2 | [EB]2 [Ec]2 [EB]2 [CA]2 | [DA]2 [B,G]6 | %12
 [DG]2 [CE]2 [A,F]2 [CG]2 | [CA]2 [CG]4 [CG]2 | [CE]2 [B,F]2 [CE]2 [CD]2 | [B,D]2 [G,C]6 |] %16
V:2
 [C,E,]2 [B,,D,]2 [C,E,]2 F,2 | [D,F,]2 [C,G,]4 [C,G,]2 | [C,C]2 [G,B,]2 [A,C]2 [F,A,]2 | %3
 G,2 [C,G,]6 | [C,E,]2 [B,,D,]2 [C,E,]2 F,2 | [D,F,]2 [C,G,]4 [C,G,]2 | %6
 [C,C]2 [G,B,]2 [A,C]2 [F,A,]2 | G,2 [C,G,]6 | [E,G,]2 [C,C]2 [A,C]2 [F,A,]2 | %9
 [D,A,]2 [A,,A,]4 [E,^G,]2 | [^G,B,]2 A,2 [E,G,]2 [E,A,]2 | [D,^F,]2 [G,,G,]6 | %12
 [B,,G,]2 [C,G,]2 [D,F,]2 [C,E,]2 | [F,,F,]2 [C,F,]4 [C,E,]2 | [C,G,]2 [D,F,]2 [E,G,]2 [F,A,]2 | %15
 G,2 [C,E,]6 |] %16
V:3
 x6 F,2 | x8 | x8 | G,2 x6 | x6 F,2 | x8 | x8 | G,2 x6 | x8 | x8 | x2 A,2 x4 | x8 | x8 | x8 | x8 | %15
 G,2 x6 |] %16

